packages/core/src/svgs/pica.svg

<svg width="24" height="24" viewBox="0 0 24 24" fill="none" xmlns="http://www.w3.org/2000/svg">
<g clip-path="url(#clip0_31_15956)">
<path d="M0 0H24V24H0V0Z" fill="#F0F3FA"/>
<path fill-rule="evenodd" clip-rule="evenodd" d="M11.1429 6H6V18H11.1429V13.6971C11.7857 13.9843 12.5143 14.1429 13.2857 14.1429C15.8914 14.1429 18 12.3214 18 10.0714C18 7.82143 15.8914 6 13.2857 6C12.5143 6 11.7857 6.15857 11.1429 6.44571V6ZM13.2857 13.7143C12.5057 13.7143 11.7729 13.5386 11.1429 13.2257V6.91714C11.8104 6.59265 12.5435 6.42551 13.2857 6.42857C15.6514 6.42857 17.5714 8.05714 17.5714 10.0714C17.5714 12.0857 15.6514 13.7143 13.2857 13.7143ZM9 10.0714C9 11.2629 9.67286 12.3214 10.7143 12.9857V7.15714C9.67286 7.82143 9 8.88 9 10.0714ZM8.57143 10.0714C8.57143 8.64429 9.42429 7.38429 10.7143 6.66V6.42857H6.42857V17.5714H10.7143V13.4829C9.42429 12.7543 8.57143 11.4986 8.57143 10.0714ZM18 14.1429V18C16.8171 18 15.8571 17.1386 15.8571 16.0714C15.8571 15.0043 16.8171 14.1429 18 14.1429Z" fill="#282828"/>
</g>
<defs>
<clipPath id="clip0_31_15956">
<rect width="24" height="24" fill="white"/>
</clipPath>
</defs>
</svg>

<svg xmlns="http://www.w3.org/2000/svg" width="24" height="24" fill="none" viewBox="0 0 24 24"><g clip-path="url(#a)"><path fill="#F0F3FA" d="M0 0h24v24H0z"/><path fill="#282828" fill-rule="evenodd" d="M11.143 6H6v12h5.143v-4.303a5.25 5.25 0 0 0 2.143.446C15.89 14.143 18 12.32 18 10.07S15.891 6 13.286 6c-.772 0-1.5.159-2.143.446zm2.143 7.714c-.78 0-1.513-.175-2.143-.488V6.917a4.86 4.86 0 0 1 2.143-.488c2.365 0 4.285 1.628 4.285 3.642s-1.92 3.643-4.285 3.643M9 10.071c0 1.192.673 2.25 1.714 2.915V7.157C9.673 7.821 9 8.88 9 10.071m-.429 0c0-1.427.853-2.687 2.143-3.411v-.231H6.43V17.57h4.285v-4.088c-1.29-.729-2.143-1.984-2.143-3.412M18 14.143V18c-1.183 0-2.143-.861-2.143-1.929 0-1.067.96-1.928 2.143-1.928" clip-rule="evenodd"/></g><defs><clipPath id="a"><path fill="#fff" d="M0 0h24v24H0z"/></clipPath></defs></svg>
